src/lib/packages/icons/src/assets/filled/exchange-horizontal-circle.svg

<svg width="24" height="24" viewBox="0 0 24 24" fill="none" xmlns="http://www.w3.org/2000/svg">
<path d="M12 2C6.477 2 2 6.477 2 12C2 17.523 6.477 22 12 22C17.523 22 22 17.523 22 12C22 6.477 17.523 2 12 2ZM6.30688 10.7871C6.19188 10.5071 6.25497 10.184 6.46997 9.96997L9.46997 6.96997C9.76297 6.67697 10.238 6.67697 10.531 6.96997C10.824 7.26297 10.824 7.73801 10.531 8.03101L8.81104 9.75098H15C15.414 9.75098 15.75 10.087 15.75 10.501C15.75 10.915 15.414 11.251 15 11.251H7C6.696 11.25 6.42288 11.0671 6.30688 10.7871ZM17.53 14.03L14.53 17.03C14.384 17.176 14.192 17.25 14 17.25C13.808 17.25 13.616 17.177 13.47 17.03C13.177 16.737 13.177 16.262 13.47 15.969L15.1899 14.249H9C8.586 14.249 8.25 13.913 8.25 13.499C8.25 13.085 8.586 12.749 9 12.749H17C17.304 12.749 17.5771 12.9319 17.6931 13.2119C17.8091 13.4929 17.745 13.816 17.53 14.03Z" fill="currentColor"/>
</svg>

<svg xmlns="http://www.w3.org/2000/svg" width="24" height="24" fill="none"><path fill="currentColor" d="M12 2C6.477 2 2 6.477 2 12s4.477 10 10 10 10-4.477 10-10S17.523 2 12 2Zm-5.693 8.787a.75.75 0 0 1 .163-.817l3-3a.75.75 0 1 1 1.061 1.061l-1.72 1.72H15a.75.75 0 0 1 0 1.5H7a.752.752 0 0 1-.693-.464ZM17.53 14.03l-3 3a.748.748 0 0 1-1.06 0 .75.75 0 0 1 0-1.061l1.72-1.72H9a.75.75 0 0 1 0-1.5h8a.75.75 0 0 1 .53 1.281Z"/></svg>
